X:1
T:В церкви
T:В церкви
T:Детский альбом соч.39
T:П.И.Чайковский
C:П.И.Чайковский
%%score { ( 1 2 ) | ( 3 4 ) }
L:1/8
Q:1/4=50
M:2/4
K:Ab
V:1 treble nm="Piano" snm="Pno."
V:2 treble 
V:3 bass 
V:4 bass 
V:1
"^Moderato" F F F F | (=E2 F2) | G G G G | (G3 F) | [EG]4 | A A A A | (G3 F) | =E4 | F2 F G | %9
w: ||||ю|при- по- дем соз-|да те-|лю||
 (!>!A3 G) | F2 =E2 | F4 | F F F F | (=E2 F2) | G G G G | (!>!G3 F) | G4 | A A A A | (!>!G3 F) | %19
w: ||||||||||
 =E4 | F2 F G | (!>!A3 G) | F2 =E2 | F4 | (F2 F) F | F4 | =E4 |!pp! F4 | (F2 F) F | F4 | =E4 | F4 | %32
w: |||||||||||||
 ([cf]2 [cf] [cf] | [c=e]2 [ce] [ce] | [=A_e]2 [Ae] [Ae] | [Bd]2 [Bd] [Bd] | B2) A A | G2 G G | %38
w: ||||||
 G2 G G | F4!mp! | F2 F F | F2 F F | D2 D!mf! D | (C2 F) [Ac] | B2 A A | G2 G G | G2 G G | F4 |: %48
w: ||||||||||
 (F2 F) F | F3 F | F2 F2 |!ppp! !fermata!F4 :| %52
w: Бо- же, спа-|си свя-|ту- ю|Русь,|
V:2
 C C C C | C2 C2 | _E E E E | E3 C | x4 | E E E E | E3 C | C4 | C2 C _E | E3 D | C2 C2 | C4 | %12
w: серд- цем по- ка-|ян- ным|пла- мен- ной мо-|лит- во-|||||Бо- же, хра-|ни род-|ну- ю|Русь!|
 C C C C | C2 C2 | _E E E E | E3 C | E4 | E E E E | E3 C | C4 | C2 C _E | E3 D | C2 C2 | C4 | %24
w: Бо- жьим про- мыш-|лень- ем,|скор- бях всех взы-|ва- *|ем|го- рес- тью сы-|но- вне-|ю:|Бо- же спа-|си род-|ну- ю|Русь!|
 C2 C C | D4 | C4 | C4 | C2 C C | D4 | C4 | C4 | [CA]2 [CA] [CA] | [CG]2 [CG] [CG] | %34
w: Бо- же спа-|си|е-|ё|Бо- же хра-|ни|е-|ё|Мно- го нис-|пос- ла- но|
 [E_G]2 [EG] [EG] | [B,F]2 [B,F] [B,F] | [DF]2 [CF] [CF] | [DF]2 [DF] [DF] | [=DF]2 [=EG] [=EG] | %39
w: ей ис- пы-|та- ний и|мно- го е-|щё пред- сто-|ит пе- ре|
 F4 | E2 E E | D2 D D | =B,2 B, B, | C2 C [CF] | [DF]2 [CF] [CF] | [DF]2 [DF] [DF] | %46
w: жить.|По- мощь Все-|выш- не- го|нам у- по-|ва- ни- е|даст нам и|си- лу е-|
 [C=E]2 [C=E] [C=E] | C4 |: C2 C C | C3 C | C2 C2 | C4 :| %52
w: ё воз- ро-|дить.|||||
V:3
!p! A, A, A, A, | G,2 A,2 | B, B, B, B, | B,3 A, | B,4 |!mf! C C C C | (B,3 A,) |!mf! G,4 | %8
w: С * * *||||||||
 A,2 A, B, | C3 B, | A,2 G,2 | A,4 | A, A, A, A, | G,2 A,2 | B, B, B, B, | B,3 A, | B,4 | C C C C | %18
w: ||||||||||
 B,3 A, |!mf! G,4 | A,2 A, B, | C3 B, | A,2 G,2 | A,4 | A,2 A, A, | G,4 | G,4 | A,4 | A,2 A, A, | %29
w: |||||||||||
 G,4 | G,4 | A,4 | F,2 F, F, | F,2 F, F, | F,2 F, F, | F,2 F, F, | G,2 A, A, | B,2 B, B, | %38
w: |||||||||
 =B,2 C C | _A,4 | =A,2 A, A, | B,2 B, B, | A,2 A, A, | A,2 A, A, | G,2 A, A, | B,2 B, B, | %46
w: ||||||||
 C2 B, B, |!p! _A,4 |: A,2 A, A, | A,3 A, | A,2 A,2 | A,4 :| %52
w: ||Бо- же, хра-|ни- *|е- *|ё|
V:4
 F, F, F, F, | (C,2 F,2) | E, E, E, E, | (E,3 F,) | E,4 | A, A, A, A, | E,3 F, | C,4 | F,2 F, E, | %9
w: |||||||||
 (A,3 G,) | C,2 C,2 | F,4 | F, F, F, F, | (C,2 F,2) | E, E, E, E, | (E,3 F,) | E,4 | A, A, A, A, | %18
w: |||||||||
 (E,3 F,) | C,4 | F,2 F, E, | (A,3 G,) | C,2 C,2 | F,4 | (F,2 F,) F, | F,4 | C,4 | F,4 | %28
w: ||||||||||
 (F,2 F,) F, | F,4 | C,4 | F,2 F,!mf! F, | x4 | x4 | x4 | x4 | F,2 F, F, | F,2 F, F, | F,2 F, F, | %39
w: |||* Мно- го||||||||
 F,2 F, F, | F,2 F, F, | F,2 F, F, | F,2 F, F, | F,2 F, F, | F,2 F, F, | F,2 F, F, | F,2 F, F, | %47
w: * По- *||||||||
 F,4 |: (F,2 F,) F, | F,3 F, | F,2 F,2 | !fermata!F,4 :| %52
w: |||||

